X:540
T:Lady's Plaything, The
T:General Howe's March
S:West Edinburgh Folk Group and Matt Seattle
Z:Nigel Gatherer
M:6/8
L:1/8
K:A
e/d/ | c2c cde | B2B B2e | A2A ABc | c3  B2f |
       eae cec | AcA e2d | cdc BcB | A2A A2 :|
z    | ece ece | f2f f2d | dBd dBd | e2e e2d |
       cAc cAc | d2d dcB | cde edc | c3  B2f |
       eae cec | AcA e2d | cdc BcB | A2A A2 :|
<end>
<start>
